public/logo-xl.svg

<svg viewBox="0 0 481 396" fill="none" xmlns="http://www.w3.org/2000/svg">
<path d="M51.2241 234.287L0 338.415H26.3678L36.7806 316.414H97.4098L107.823 338.415H134.19L82.9662 234.287H51.2241ZM46.0177 297.436L67.1791 252.594L88.3406 297.436H46.0177Z" fill="white"/>
<path d="M228.07 238.654C221.688 235.799 214.298 234.287 205.565 234.287H145.943V338.415H170.8V303.146H205.733C214.298 303.146 221.856 301.634 228.238 298.779C234.62 295.924 239.322 291.893 242.681 286.687C246.04 281.481 247.72 275.603 247.72 268.717C247.72 261.831 246.04 255.785 242.681 250.746C239.322 245.54 234.452 241.509 228.07 238.654ZM217.825 279.801C214.634 282.488 210.099 283.832 204.389 283.832H170.8V253.769H204.389C210.099 253.769 214.634 255.113 217.825 257.8C221.016 260.487 222.696 264.182 222.696 268.885C222.696 273.419 221.184 277.114 217.825 279.801Z" fill="white"/>
<path d="M336.229 261.83C330.687 258.807 323.969 257.296 316.075 257.296C309.189 257.296 302.975 258.807 297.433 261.83C292.226 264.686 288.028 268.548 284.501 273.587V231.432H260.148V338.415H284.501V300.291C284.501 295.42 285.509 291.221 287.356 287.694C289.203 284.168 291.891 281.48 295.585 279.465C299.112 277.45 303.311 276.442 308.014 276.442C314.731 276.442 319.938 278.289 323.633 281.984C327.16 285.679 329.007 291.053 329.007 298.107V338.583H353.359V294.748C353.359 287.023 351.848 280.473 348.993 274.93C345.97 269.052 341.771 264.854 336.229 261.83Z" fill="white"/>
<path d="M476.801 295.756C474.114 291.725 470.083 288.534 464.541 286.183C462.189 285.175 459.502 284.335 456.479 283.831C457.823 283.327 458.998 282.656 460.006 282.152C464.709 279.465 468.068 276.106 470.251 272.075C472.266 268.044 473.442 264.013 473.442 259.647C473.442 251.753 470.587 245.539 465.045 241.173C459.502 236.638 451.609 234.455 441.532 234.455H367.635L376.032 285.175L367.635 338.582H444.387C452.448 338.582 459.166 337.407 464.541 334.887C469.915 332.368 473.946 329.009 476.801 324.643C479.488 320.276 481 315.405 481 309.863C480.664 304.321 479.32 299.786 476.801 295.756ZM434.142 251.585C438.677 251.585 442.204 252.593 444.555 254.776C447.074 256.96 448.25 259.647 448.25 262.838C448.25 267.036 446.738 270.395 443.883 272.747C441.028 275.098 437.333 276.274 432.966 276.274H398.033L393.667 251.417L434.142 251.585ZM451.273 317.589C448.418 319.94 444.387 321.116 439.013 321.116H393.835L398.369 293.404H435.99C442.372 293.404 447.242 294.748 450.601 297.267C453.96 299.786 455.639 303.313 455.639 307.68C455.639 312.046 454.128 315.238 451.273 317.589Z" fill="white"/>
<path d="M340.764 50.0485H340.429V44.6741C340.429 20.6576 320.947 1.17564 296.762 1.17564C272.746 1.17564 253.096 20.6576 253.096 44.6741C253.096 50.2164 257.63 54.751 263.173 54.751C268.715 54.751 273.249 50.2164 273.249 44.6741C273.249 31.7422 283.662 21.3294 296.594 21.3294C309.526 21.3294 320.275 31.9101 320.275 44.6741V60.1253C320.275 65.6676 324.809 70.2022 330.352 70.2022H340.932C353.864 70.2022 364.277 80.615 364.277 93.547C364.277 106.479 353.864 116.892 340.932 116.892H330.352C324.809 116.892 320.275 121.426 320.275 126.969V142.42C320.275 155.352 309.862 165.765 296.93 165.765C283.998 165.765 273.585 155.352 273.585 142.42V116.052C273.585 97.4098 258.47 82.2944 239.828 82.2944C232.438 82.2944 226.224 76.2483 226.224 68.6907V43.4985C226.224 19.482 206.742 0 182.558 0C158.541 0 138.891 19.482 138.891 43.4985V48.8728C115.211 49.3767 96.2324 68.6907 96.2324 92.3713C96.2324 116.052 115.211 135.366 138.891 135.87V141.244C138.891 165.261 158.373 184.743 182.558 184.743C206.574 184.743 226.224 165.261 226.224 141.244C226.224 135.702 221.689 131.167 216.147 131.167C210.605 131.167 206.07 135.702 206.07 141.244C206.07 154.176 195.658 164.589 182.726 164.589C169.794 164.589 159.381 154.176 159.381 141.244V125.793C159.381 120.251 154.846 115.716 149.304 115.716H140.067C127.135 115.716 116.722 105.303 116.722 92.3713C116.722 79.4393 127.135 69.0266 140.067 69.0266H149.304C154.846 69.0266 159.381 64.492 159.381 58.9497V43.4985C159.381 30.5665 169.794 20.1537 182.726 20.1537C195.658 20.1537 206.07 30.5665 206.07 43.4985V68.8586C206.07 87.5008 221.186 102.616 239.828 102.616C247.218 102.616 253.432 108.662 253.432 116.22V142.588C253.432 166.604 272.914 186.086 297.098 186.086C321.115 186.086 340.764 166.604 340.764 142.588V137.213H341.1C365.117 137.213 384.767 117.731 384.767 93.7149C384.767 69.6984 364.949 50.0485 340.764 50.0485Z" fill="white"/>
<path d="M179.533 373.18C179.701 370.492 180.541 368.309 182.052 366.294C183.564 364.446 185.579 362.935 188.266 361.927C190.786 360.919 193.641 360.416 197 360.416C200.023 360.416 202.71 360.919 205.061 361.759C207.413 362.599 209.092 363.942 210.436 365.622C211.779 367.301 212.283 369.317 212.283 371.5C212.283 373.18 211.779 374.859 210.939 376.203C210.1 377.546 208.588 379.058 206.573 380.569C204.557 382.081 202.038 383.592 198.847 385.272L189.106 390.478L188.602 388.127H213.291V395.013H180.037V388.967L194.649 380.569C197 379.226 198.847 378.05 200.191 377.21C201.534 376.203 202.374 375.363 203.046 374.523C203.55 373.683 203.886 372.844 203.886 371.836C203.886 370.828 203.55 369.989 203.046 369.317C202.542 368.645 201.702 367.973 200.695 367.469C199.687 366.966 198.343 366.798 196.664 366.798C194.816 366.798 193.137 367.133 191.961 367.637C190.786 368.141 189.778 368.981 189.274 369.821C188.602 370.828 188.266 371.836 188.266 372.844H179.533V373.18Z" fill="white"/>
<path d="M235.964 395.685C232.102 395.685 228.743 395.013 226.056 393.501C223.368 391.99 221.017 389.974 219.506 387.287C217.994 384.6 217.154 381.577 217.154 378.05C217.154 374.523 217.994 371.332 219.506 368.813C221.017 366.294 223.2 364.11 226.056 362.599C228.911 361.087 232.27 360.416 235.964 360.416C239.827 360.416 243.018 361.087 245.873 362.599C248.729 364.11 250.912 366.126 252.423 368.813C253.935 371.5 254.775 374.523 254.775 378.05C254.775 381.577 253.935 384.768 252.423 387.287C250.912 389.806 248.729 391.99 245.873 393.501C243.186 395.013 239.827 395.685 235.964 395.685ZM235.964 388.799C239.155 388.799 241.675 387.791 243.522 385.944C245.37 384.096 246.209 381.409 246.209 378.05C246.209 374.691 245.37 372.004 243.522 370.157C241.675 368.309 239.155 367.301 235.964 367.301C232.773 367.301 230.254 368.309 228.407 370.157C226.559 372.004 225.72 374.691 225.72 378.05C225.72 381.409 226.559 384.096 228.407 385.944C230.254 387.791 232.773 388.799 235.964 388.799Z" fill="white"/>
<path d="M258.469 373.18C258.637 370.492 259.476 368.309 260.988 366.294C262.499 364.446 264.515 362.935 267.202 361.927C269.721 360.919 272.576 360.416 275.935 360.416C278.958 360.416 281.646 360.919 283.997 361.759C286.348 362.599 288.028 363.942 289.371 365.622C290.715 367.301 291.219 369.317 291.219 371.5C291.219 373.18 290.715 374.859 289.875 376.203C289.035 377.546 287.524 379.058 285.508 380.569C283.493 382.081 280.974 383.592 277.783 385.272L268.042 390.478L267.538 388.127H292.226V395.013H258.973V388.967L273.584 380.569C275.935 379.226 277.783 378.05 279.126 377.21C280.47 376.203 281.31 375.363 281.981 374.523C282.485 373.683 282.821 372.844 282.821 371.836C282.821 370.828 282.485 369.989 281.981 369.317C281.478 368.645 280.638 367.973 279.63 367.469C278.622 366.966 277.279 366.798 275.599 366.798C273.752 366.798 272.073 367.133 270.897 367.637C269.721 368.141 268.714 368.981 268.21 369.821C267.538 370.828 267.202 371.836 267.202 372.844H258.469V373.18Z" fill="white"/>
<path d="M325.483 360.919V394.844H317.085V364.614H319.772L301.634 384.6L301.466 381.912H331.025V388.294H295.084V382.248L314.566 360.919H325.483Z" fill="white"/>
</svg>

<?xml version="1.0" encoding="UTF-8"?>
<svg id="Layer_2" data-name="Layer 2" xmlns="http://www.w3.org/2000/svg" viewBox="0 0 481 396.07">
  <defs>
    <style>
      .cls-1 {
        fill: #fff;
        stroke-width: 0px;
      }
    </style>
  </defs>
  <g id="Layer_1-2" data-name="Layer 1">
    <g>
      <path class="cls-1" d="m51.22,234.29L0,338.42h26.37l10.41-22h60.63l10.41,22h26.37l-51.22-104.13h-31.74Zm-5.21,63.15l21.16-44.84,21.16,44.84h-42.32Z"/>
      <path class="cls-1" d="m228.07,238.65c-6.38-2.86-13.77-4.37-22.51-4.37h-59.62v104.13h24.86v-35.27h34.93c8.57,0,16.12-1.51,22.51-4.37,6.38-2.85,11.08-6.89,14.44-12.09,3.36-5.21,5.04-11.08,5.04-17.97s-1.68-12.93-5.04-17.97c-3.36-5.21-8.23-9.24-14.61-12.09Zm-10.25,41.15c-3.19,2.69-7.73,4.03-13.44,4.03h-33.59v-30.06h33.59c5.71,0,10.24,1.34,13.44,4.03,3.19,2.69,4.87,6.38,4.87,11.09s-1.51,8.23-4.87,10.92Z"/>
      <path class="cls-1" d="m336.23,261.83c-5.54-3.02-12.26-4.53-20.15-4.53-6.89,0-13.1,1.51-18.64,4.53-5.21,2.86-9.4,6.72-12.93,11.76v-42.15h-24.35v106.98h24.35v-38.12c0-4.87,1.01-9.07,2.85-12.6,1.85-3.53,4.54-6.21,8.23-8.23,3.53-2.01,7.73-3.02,12.43-3.02,6.72,0,11.92,1.85,15.62,5.54,3.53,3.69,5.37,9.07,5.37,16.12v40.48h24.35v-43.84c0-7.72-1.51-14.27-4.37-19.82-3.02-5.88-7.22-10.08-12.76-13.1Z"/>
      <path class="cls-1" d="m476.8,295.76c-2.69-4.03-6.72-7.22-12.26-9.57-2.35-1.01-5.04-1.85-8.06-2.35,1.34-.5,2.52-1.17,3.53-1.68,4.7-2.69,8.06-6.05,10.24-10.08,2.01-4.03,3.19-8.06,3.19-12.43,0-7.89-2.85-14.11-8.4-18.47-5.54-4.54-13.44-6.72-23.51-6.72h-73.9l8.4,50.72-8.4,53.41h76.75c8.06,0,14.78-1.17,20.15-3.7,5.37-2.52,9.41-5.88,12.26-10.24,2.69-4.37,4.2-9.24,4.2-14.78-.34-5.54-1.68-10.08-4.2-14.11Zm-42.66-44.17c4.54,0,8.06,1.01,10.41,3.19,2.52,2.18,3.7,4.87,3.7,8.06,0,4.2-1.51,7.56-4.37,9.91-2.85,2.35-6.55,3.53-10.92,3.53h-34.93l-4.37-24.86,40.48.17Zm17.13,66c-2.86,2.35-6.89,3.53-12.26,3.53h-45.18l4.53-27.71h37.62c6.38,0,11.25,1.34,14.61,3.86,3.36,2.52,5.04,6.05,5.04,10.41s-1.51,7.56-4.37,9.91Z"/>
      <path class="cls-1" d="m340.76,50.05h-.34v-5.37c0-24.02-19.48-43.5-43.67-43.5s-43.67,19.48-43.67,43.5c0,5.54,4.53,10.08,10.08,10.08s10.08-4.53,10.08-10.08c0-12.93,10.41-23.34,23.35-23.34s23.68,10.58,23.68,23.34v15.45c0,5.54,4.53,10.08,10.08,10.08h10.58c12.93,0,23.35,10.41,23.35,23.34s-10.41,23.35-23.35,23.35h-10.58c-5.54,0-10.08,4.53-10.08,10.08v15.45c0,12.93-10.41,23.35-23.35,23.35s-23.35-10.41-23.35-23.35v-26.37c0-18.64-15.11-33.76-33.76-33.76-7.39,0-13.6-6.05-13.6-13.6v-25.19c0-24.02-19.48-43.5-43.67-43.5s-43.67,19.48-43.67,43.5v5.37c-23.68.5-42.66,19.82-42.66,43.5s18.98,42.99,42.66,43.5v5.37c0,24.02,19.48,43.5,43.67,43.5s43.67-19.48,43.67-43.5c0-5.54-4.54-10.08-10.08-10.08s-10.08,4.53-10.08,10.08c0,12.93-10.41,23.35-23.34,23.35s-23.35-10.41-23.35-23.35v-15.45c0-5.54-4.54-10.08-10.08-10.08h-9.24c-12.93,0-23.35-10.41-23.35-23.34s10.41-23.34,23.35-23.34h9.24c5.54,0,10.08-4.53,10.08-10.08v-15.45c0-12.93,10.41-23.34,23.35-23.34s23.34,10.41,23.34,23.34v25.36c0,18.64,15.12,33.76,33.76,33.76,7.39,0,13.6,6.05,13.6,13.6v26.37c0,24.02,19.48,43.5,43.67,43.5s43.67-19.48,43.67-43.5v-5.38h.34c24.02,0,43.67-19.48,43.67-43.5s-19.82-43.67-44-43.67Z"/>
      <path class="cls-1" d="m179.53,373.18c.17-2.69,1.01-4.87,2.52-6.89,1.51-1.85,3.53-3.36,6.21-4.37,2.52-1.01,5.38-1.51,8.73-1.51,3.02,0,5.71.5,8.06,1.34,2.35.84,4.03,2.18,5.38,3.86,1.34,1.68,1.85,3.69,1.85,5.88,0,1.68-.5,3.36-1.34,4.7-.84,1.34-2.35,2.86-4.37,4.37-2.02,1.51-4.54,3.02-7.73,4.7l-9.74,5.21-.5-2.35h24.69v6.89h-33.25v-6.05l14.61-8.4c2.35-1.34,4.2-2.52,5.54-3.36,1.34-1.01,2.18-1.85,2.86-2.69.5-.84.84-1.68.84-2.69s-.34-1.85-.84-2.52c-.5-.67-1.34-1.34-2.35-1.85-1.01-.5-2.35-.67-4.03-.67-1.85,0-3.53.33-4.7.84-1.18.5-2.18,1.34-2.69,2.18-.67,1.01-1.01,2.01-1.01,3.02h-8.73v.34Z"/>
      <path class="cls-1" d="m235.96,395.68c-3.86,0-7.22-.67-9.91-2.18-2.69-1.51-5.04-3.53-6.55-6.21-1.51-2.69-2.35-5.71-2.35-9.24s.84-6.72,2.35-9.24c1.51-2.52,3.69-4.7,6.55-6.21,2.85-1.51,6.21-2.18,9.91-2.18s7.05.67,9.91,2.18c2.86,1.51,5.04,3.53,6.55,6.21,1.51,2.69,2.35,5.71,2.35,9.24s-.84,6.72-2.35,9.24c-1.51,2.52-3.69,4.7-6.55,6.21-2.69,1.51-6.05,2.18-9.91,2.18Zm0-6.89c3.19,0,5.71-1.01,7.56-2.86,1.85-1.85,2.69-4.54,2.69-7.89s-.84-6.05-2.69-7.89c-1.85-1.85-4.37-2.86-7.56-2.86s-5.71,1.01-7.56,2.86c-1.85,1.85-2.69,4.53-2.69,7.89s.84,6.05,2.69,7.89c1.85,1.85,4.37,2.86,7.56,2.86Z"/>
      <path class="cls-1" d="m258.47,373.18c.17-2.69,1.01-4.87,2.52-6.89,1.51-1.85,3.53-3.36,6.21-4.37,2.52-1.01,5.37-1.51,8.73-1.51,3.02,0,5.71.5,8.06,1.34,2.35.84,4.03,2.18,5.37,3.86,1.34,1.68,1.85,3.69,1.85,5.88,0,1.68-.5,3.36-1.34,4.7-.84,1.34-2.35,2.86-4.37,4.37-2.01,1.51-4.53,3.02-7.73,4.7l-9.74,5.21-.5-2.35h24.69v6.89h-33.25v-6.05l14.61-8.4c2.35-1.34,4.2-2.52,5.54-3.36,1.34-1.01,2.18-1.85,2.85-2.69.5-.84.84-1.68.84-2.69s-.34-1.85-.84-2.52c-.5-.67-1.34-1.34-2.35-1.85-1.01-.5-2.35-.67-4.03-.67-1.85,0-3.53.33-4.7.84s-2.18,1.34-2.69,2.18c-.67,1.01-1.01,2.01-1.01,3.02h-8.73v.34Z"/>
      <path class="cls-1" d="m321.73,374.8c2.05.92,3.64,2.2,4.75,3.84s1.67,3.51,1.67,5.62c0,2.31-.64,4.36-1.92,6.14-1.28,1.79-3.13,3.18-5.54,4.17-2.41.99-5.27,1.49-8.56,1.49s-5.96-.47-8.39-1.42-4.35-2.23-5.75-3.86c-1.4-1.63-2.18-3.46-2.36-5.5h9.06c.26,1.16,1.05,2.07,2.36,2.75,1.31.68,3,1.02,5.08,1.02,1.43,0,2.67-.19,3.72-.58s1.84-.94,2.39-1.67.82-1.58.82-2.58-.26-1.79-.77-2.51c-.51-.72-1.27-1.29-2.28-1.69-1.01-.4-2.22-.6-3.64-.6-1.68,0-3.16.26-4.43.79-1.27.53-2.33,1.18-3.16,1.98h-7.86l2.85-19.77h25.79v6.76h-19.69l-1.1,7.18c1.17-.92,2.57-1.64,4.19-2.16,1.62-.52,3.47-.78,5.53-.78,2.76,0,5.17.46,7.23,1.38Z"/>
    </g>
  </g>
</svg>
